PsorTheDoctor/robwork/src/project/robotics/data/linear_from_above2.csv
t,q0,q1,q2,q3,q4,q5,x,y,z,roll,pitch,yaw
0.000000,-1.799310,-1.506530,1.902850,-1.885110,-1.577040,-0.190939,0.001997,0.487497,0.272493,-0.037704,0.009436,3.059891
0.050000,-1.680472,-1.487432,1.790401,-1.891432,-1.479966,-0.167437,-0.060532,0.514088,0.315634,0.059979,0.086587,-3.108932
0.100000,-1.561633,-1.468334,1.677953,-1.897754,-1.382892,-0.143934,-0.129161,0.527940,0.361196,0.176367,0.167589,-2.996591
0.150000,-1.442795,-1.449236,1.565504,-1.904076,-1.285818,-0.120432,-0.201064,0.527730,0.408717,0.312115,0.249259,-2.884153
0.200000,-1.323956,-1.430139,1.453055,-1.910397,-1.188744,-0.096929,-0.273145,0.512782,0.457668,0.467873,0.328353,-2.769386
0.250000,-1.205118,-1.411041,1.340606,-1.916719,-1.091670,-0.073427,-0.342187,0.483132,0.507468,0.644163,0.401516,-2.650268
0.300000,-1.086279,-1.391943,1.228158,-1.923041,-0.994596,-0.049924,-0.405026,0.439542,0.557490,0.841037,0.465288,-2.525439
0.350000,-0.967441,-1.372845,1.115709,-1.929363,-0.897522,-0.026422,-0.458716,0.383484,0.607076,1.057547,0.516236,-2.394779
0.400000,-0.848602,-1.353747,1.003260,-1.935685,-0.800448,-0.002919,-0.500696,0.317075,0.655548,1.291167,0.551244,-2.260006
0.450000,-0.729764,-1.334649,0.890812,-1.942007,-0.703374,0.020583,-0.528933,0.242975,0.702225,1.537521,0.567977,-2.124938
0.500000,-0.610925,-1.315552,0.778363,-1.948329,-0.606300,0.044086,-0.542042,0.164256,0.746435,1.790810,0.565359,-1.995071
0.550000,-0.492087,-1.296454,0.665914,-1.954650,-0.509226,0.067588,-0.539370,0.084232,0.787535,2.044958,0.543836,-1.876405
0.600000,-0.373248,-1.277356,0.553466,-1.960972,-0.412153,0.091090,-0.521028,0.006288,0.824922,2.294973,0.505278,-1.774085
0.650000,-0.254410,-1.258258,0.441017,-1.967294,-0.315079,0.114593,-0.487897,-0.066307,0.858048,2.537799,0.452554,-1.691526
0.700000,-0.135571,-1.239160,0.328568,-1.973616,-0.218005,0.138095,-0.441569,-0.130577,0.886432,2.772380,0.389022,-1.630332
0.750000,-0.016733,-1.220062,0.216119,-1.979938,-0.120931,0.161598,-0.384260,-0.183998,0.909670,2.999176,0.318117,-1.590745
0.800000,0.102106,-1.200965,0.103671,-1.986260,-0.023857,0.185100,-0.318681,-0.224629,0.927448,-3.063646,0.243123,-1.572222
0.850000,0.220944,-1.181867,-0.008778,-1.992582,0.073217,0.208603,-0.247883,-0.251211,0.939543,-2.848008,0.167080,-1.573884
0.900000,0.339783,-1.162769,-0.121227,-1.998903,0.170291,0.232105,-0.175082,-0.263214,0.945826,-2.635405,0.092790,-1.594769
0.950000,0.458621,-1.143671,-0.233675,-2.005225,0.267365,0.255608,-0.103479,-0.260854,0.946271,-2.424426,0.022834,-1.633905
1.000000,0.577460,-1.124573,-0.346124,-2.011547,0.364439,0.279110,-0.036090,-0.245051,0.940942,-2.214117,-0.040421,-1.690260
1.050000,0.696298,-1.105475,-0.458573,-2.017869,0.461513,0.302612,0.024415,-0.217358,0.929999,-2.004134,-0.094853,-1.762631
1.100000,0.815137,-1.086378,-0.571021,-2.024191,0.558587,0.326115,0.075844,-0.179850,0.913685,-1.794846,-0.138672,-1.849517
1.150000,0.933975,-1.067280,-0.683470,-2.030513,0.655661,0.349617,0.116580,-0.134985,0.892317,-1.587376,-0.170540,-1.949048
1.200000,1.052814,-1.048182,-0.795919,-2.036835,0.752735,0.373120,0.145642,-0.085450,0.866281,-1.383523,-0.189706,-2.059013
1.250000,1.171652,-1.029084,-0.908368,-2.043156,0.849809,0.396622,0.162705,-0.034004,0.836014,-1.185562,-0.196127,-2.177024
1.300000,1.290491,-1.009986,-1.020816,-2.049478,0.946883,0.420125,0.168080,0.016679,0.801994,-0.995946,-0.190507,-2.300768
1.350000,1.409329,-0.990888,-1.133265,-2.055800,1.043957,0.443627,0.162660,0.064155,0.764725,-0.816983,-0.174264,-2.428279
1.400000,1.528168,-0.971791,-1.245714,-2.062122,1.141031,0.467130,0.147831,0.106324,0.724725,-0.650586,-0.149420,-2.558124
1.450000,1.647006,-0.952693,-1.358162,-2.068444,1.238105,0.490632,0.125369,0.141530,0.682512,-0.498127,-0.118446,-2.689465
1.500000,1.765845,-0.933595,-1.470611,-2.074766,1.335179,0.514135,0.097308,0.168612,0.638591,-0.360400,-0.084100,-2.821978
1.550000,1.884683,-0.914497,-1.583060,-2.081088,1.432253,0.537637,0.065820,0.186943,0.593447,-0.237639,-0.049291,-2.955674
1.600000,2.003522,-0.895399,-1.695509,-2.087409,1.529327,0.561139,0.033082,0.196417,0.547528,-0.129552,-0.016953,-3.090673
1.650000,2.116304,-0.877601,-1.802883,-2.092408,1.621392,0.581260,0.002598,0.197805,0.503353,-0.037636,0.008991,3.063256
1.700000,2.011651,-0.906454,-1.728078,-2.049878,1.533644,0.479975,0.026113,0.207235,0.535070,-0.040061,-0.020017,-3.099613
1.750000,1.906997,-0.935307,-1.653273,-2.007348,1.445896,0.378690,0.052006,0.212549,0.567353,-0.055369,-0.072069,-2.986867
1.800000,1.802344,-0.964159,-1.578469,-1.964819,1.358148,0.277406,0.079520,0.213122,0.600065,-0.086436,-0.143491,-2.883808
1.850000,1.697690,-0.993012,-1.503664,-1.922289,1.270400,0.176121,0.107746,0.208480,0.633032,-0.134897,-0.230222,-2.791007
1.900000,1.593037,-1.021865,-1.428859,-1.879760,1.182652,0.074836,0.135657,0.198341,0.666047,-0.201503,-0.328219,-2.707769
1.950000,1.488383,-1.050718,-1.354054,-1.837230,1.094904,-0.026449,0.162152,0.182641,0.698873,-0.286593,-0.433687,-2.632490
2.000000,1.383730,-1.079571,-1.279249,-1.794701,1.007156,-0.127734,0.186102,0.161554,0.731248,-0.390514,-0.543150,-2.562921
2.050000,1.279076,-1.108424,-1.204445,-1.752171,0.919408,-0.229019,0.206407,0.135503,0.762891,-0.513946,-0.653430,-2.496310
2.100000,1.174423,-1.137276,-1.129640,-1.709642,0.831660,-0.330304,0.222053,0.105154,0.793509,-0.658138,-0.761568,-2.429412
2.150000,1.069769,-1.166129,-1.054835,-1.667112,0.743911,-0.431589,0.232165,0.071393,0.822804,-0.825026,-0.864744,-2.358476
2.200000,0.965116,-1.194982,-0.980030,-1.624583,0.656163,-0.532874,0.236059,0.035299,0.850478,-1.017162,-0.960205,-2.279319
2.250000,0.860463,-1.223835,-0.905225,-1.582053,0.568415,-0.634159,0.233286,-0.001904,0.876243,-1.237192,-1.045272,-2.187810
2.300000,0.755809,-1.252688,-0.830421,-1.539524,0.480667,-0.735444,0.223659,-0.038897,0.899827,-1.486458,-1.117495,-2.081186
2.350000,0.651156,-1.281541,-0.755616,-1.496994,0.392919,-0.836729,0.207274,-0.074330,0.920982,-1.762396,-1.175081,-1.960583
2.400000,0.546502,-1.310393,-0.680811,-1.454464,0.305171,-0.938014,0.184516,-0.106886,0.939487,-2.055567,-1.217621,-1.833914
2.450000,0.441849,-1.339246,-0.606006,-1.411935,0.217423,-1.039299,0.156040,-0.135343,0.955158,-2.349216,-1.246777,-1.716254
2.500000,0.337195,-1.368099,-0.531201,-1.369405,0.129675,-1.140583,0.122754,-0.158633,0.967850,-2.623580,-1.266213,-1.625486
2.550000,0.232542,-1.396952,-0.456397,-1.326876,0.041927,-1.241868,0.085771,-0.175896,0.977461,-2.861737,-1.280462,-1.576451
2.600000,0.127888,-1.425805,-0.381592,-1.284346,-0.045821,-1.343153,0.046362,-0.186524,0.983935,-3.051454,-1.293347,-1.579129
2.650000,0.023235,-1.454658,-0.306787,-1.241817,-0.133569,-1.444438,0.005896,-0.190184,0.987263,3.100491,-1.306699,-1.641201
2.700000,-0.081418,-1.483511,-0.231982,-1.199287,-0.221317,-1.545723,-0.034225,-0.186835,0.987481,3.038044,-1.319463,-1.770611
2.750000,-0.186072,-1.512363,-0.157177,-1.156758,-0.309065,-1.647008,-0.072632,-0.176728,0.984674,3.051622,-1.327035,-1.972297
2.800000,-0.290725,-1.541216,-0.082373,-1.114228,-0.396813,-1.748293,-0.108052,-0.160386,0.978967,3.131249,-1.321627,-2.234147
2.850000,-0.395379,-1.570069,-0.007568,-1.071699,-0.484562,-1.849578,-0.139365,-0.138574,0.970526,-3.046021,-1.295440,-2.514467
2.900000,-0.500032,-1.598922,0.067237,-1.029169,-0.572310,-1.950863,-0.165648,-0.112257,0.959550,-2.962211,-1.245324,-2.763149
2.950000,-0.604686,-1.627775,0.142042,-0.986640,-0.660058,-2.052148,-0.186217,-0.082549,0.946270,-2.922785,-1.173411,-2.956388
3.000000,-0.709339,-1.656628,0.216847,-0.944110,-0.747806,-2.153433,-0.200644,-0.050653,0.930936,-2.923959,-1.083964,-3.096572
3.050000,-0.813993,-1.685480,0.291651,-0.901580,-0.835554,-2.254718,-0.208767,-0.017801,0.913817,-2.953382,-0.981095,3.088479
3.100000,-0.918646,-1.714333,0.366456,-0.859051,-0.923302,-2.356003,-0.210682,0.014804,0.895189,-2.999650,-0.868237,3.022387
3.150000,-1.023300,-1.743186,0.441261,-0.816521,-1.011050,-2.457288,-0.206723,0.046042,0.875331,-3.054275,-0.748306,2.981395
3.200000,-1.127953,-1.772039,0.516066,-0.773992,-1.098798,-2.558572,-0.197434,0.074925,0.854514,-3.111169,-0.623953,2.961213
3.250000,-1.232606,-1.800892,0.590870,-0.731462,-1.186546,-2.659857,-0.183522,0.100631,0.832998,3.117370,-0.497782,2.959463
3.300000,-1.337260,-1.829745,0.665675,-0.688933,-1.274294,-2.761142,-0.165816,0.122533,0.811025,3.068546,-0.372519,2.975100
3.350000,-1.441913,-1.858597,0.740480,-0.646403,-1.362042,-2.862427,-0.145219,0.140208,0.788808,3.028559,-0.251172,3.007992
3.400000,-1.546567,-1.887450,0.815285,-0.603874,-1.449790,-2.963712,-0.122652,0.153439,0.766537,3.000029,-0.137166,3.058568
3.450000,-1.651220,-1.916303,0.890090,-0.561344,-1.537538,-3.064997,-0.099016,0.162206,0.744362,2.985096,-0.034439,3.127417
3.500000,-1.653359,-1.911156,0.857750,-0.582807,-1.490970,-3.068942,-0.102744,0.159385,0.755401,2.991507,-0.084205,3.081925
3.550000,-1.592918,-1.885255,0.760005,-0.643333,-1.362408,-3.013466,-0.122735,0.147367,0.787092,3.032131,-0.228273,2.967241
3.600000,-1.532476,-1.859353,0.662259,-0.703860,-1.233846,-2.957989,-0.141197,0.130073,0.818915,3.107475,-0.375445,2.856515
3.650000,-1.472035,-1.833451,0.564513,-0.764387,-1.105284,-2.902513,-0.157151,0.107270,0.850233,-3.062787,-0.518936,2.741292
3.700000,-1.411593,-1.807549,0.466767,-0.824914,-0.976721,-2.847037,-0.169569,0.079010,0.880282,-2.907191,-0.651419,2.612042
3.750000,-1.351152,-1.781647,0.369021,-0.885440,-0.848159,-2.791560,-0.177443,0.045659,0.908204,-2.702878,-0.764349,2.459424
3.800000,-1.290710,-1.755745,0.271275,-0.945967,-0.719597,-2.736084,-0.179866,0.007912,0.933103,-2.447546,-0.847972,2.278800
3.850000,-1.230269,-1.729843,0.173530,-1.006494,-0.591035,-2.680607,-0.176104,-0.033230,0.954084,-2.151253,-0.893360,2.078632
3.900000,-1.169827,-1.703942,0.075784,-1.067021,-0.462472,-2.625131,-0.165669,-0.076496,0.970314,-1.840760,-0.896906,1.884597
3.950000,-1.109386,-1.678040,-0.021962,-1.127548,-0.333910,-2.569654,-0.148376,-0.120417,0.981067,-1.547426,-0.863605,1.727261
4.000000,-1.048944,-1.652138,-0.119708,-1.188074,-0.205348,-2.514178,-0.124379,-0.163402,0.985769,-1.289327,-0.804645,1.623955
4.050000,-0.988503,-1.626236,-0.217454,-1.248601,-0.076786,-2.458702,-0.094181,-0.203837,0.984032,-1.068592,-0.732041,1.575879
4.100000,-0.928061,-1.600334,-0.315200,-1.309128,0.051777,-2.403225,-0.058625,-0.240184,0.975683,-0.879764,-0.655402,1.576213
4.150000,-0.867620,-1.574432,-0.412946,-1.369655,0.180339,-2.347749,-0.018851,-0.271078,0.960771,-0.716578,-0.581310,1.616692
4.200000,-0.807178,-1.548530,-0.510691,-1.430181,0.308901,-2.292272,0.023763,-0.295404,0.939573,-0.574530,-0.513703,1.690054
4.250000,-0.746737,-1.522629,-0.608437,-1.490708,0.437463,-2.236796,0.067683,-0.312370,0.912575,-0.451157,-0.454316,1.790346
4.300000,-0.686295,-1.496727,-0.706183,-1.551235,0.566026,-2.181319,0.111313,-0.321546,0.880447,-0.345517,-0.402983,1.912603
4.350000,-0.625854,-1.470825,-0.803929,-1.611762,0.694588,-2.125843,0.153088,-0.322876,0.844009,-0.257454,-0.357888,2.052473
4.400000,-0.565412,-1.444923,-0.901675,-1.672288,0.823150,-2.070366,0.191567,-0.316672,0.804186,-0.186871,-0.315863,2.205897
4.450000,-0.504971,-1.419021,-0.999421,-1.732815,0.951712,-2.014890,0.225517,-0.303574,0.761954,-0.133119,-0.272815,2.368857
4.500000,-0.444529,-1.393119,-1.097167,-1.793342,1.080275,-1.959414,0.253974,-0.284495,0.718291,-0.094615,-0.224278,2.537205
4.550000,-0.384087,-1.367217,-1.194912,-1.853869,1.208837,-1.903937,0.276286,-0.260548,0.674128,-0.068802,-0.166025,2.706657
4.600000,-0.323646,-1.341315,-1.292658,-1.914396,1.337399,-1.848461,0.292127,-0.232964,0.630297,-0.052458,-0.094626,2.872989
4.650000,-0.263204,-1.315414,-1.390404,-1.974922,1.465961,-1.792984,0.301491,-0.203013,0.587500,-0.042250,-0.007818,3.032380
4.700000,-0.320468,-1.371953,-1.444570,-1.882737,1.491029,-1.851673,0.326148,-0.229983,0.550646,-0.040496,0.009473,3.061310
4.750000,-0.403376,-1.446455,-1.489242,-1.757281,1.493549,-1.935234,0.346542,-0.273288,0.511214,-0.040059,0.009364,3.062500
4.800000,-0.486283,-1.520956,-1.533914,-1.631825,1.496070,-2.018795,0.357163,-0.319022,0.468308,-0.039605,0.009171,3.063112
4.850000,-0.569191,-1.595457,-1.578585,-1.506368,1.498590,-2.102356,0.357778,-0.365341,0.422568,-0.039139,0.008988,3.063145
4.900000,-0.652099,-1.669958,-1.623257,-1.380912,1.501110,-2.185918,0.348509,-0.410417,0.374655,-0.038663,0.008910,3.062608
4.950000,-0.735006,-1.744459,-1.667928,-1.255456,1.503630,-2.269479,0.329822,-0.452504,0.325241,-0.038182,0.009030,3.061522
5.000000,-0.817914,-1.818960,-1.712600,-1.130000,1.506150,-2.353040,0.302497,-0.490001,0.274997,-0.037700,0.009438,3.059921
