PsorTheDoctor/robwork/src/project/robotics/data/parabolic_from_side2.csv
t,q0,q1,q2,q3,q4,q5,x,y,z,roll,pitch,yaw
0.000000,-2.040460,-1.558230,2.514840,-0.959757,1.076000,-3.118030,0.005646,0.337996,0.100683,0.025196,0.022068,-1.568026
0.050000,-2.046497,-1.589939,2.471201,-0.884211,1.069963,-3.117931,0.011774,0.346840,0.118558,0.025192,0.022245,-1.568209
0.100000,-2.052534,-1.621649,2.427561,-0.808664,1.063926,-3.117833,0.017356,0.354371,0.137725,0.025188,0.022424,-1.568390
0.150000,-2.058571,-1.653358,2.383922,-0.733118,1.057890,-3.117734,0.022317,0.360501,0.158071,0.025184,0.022606,-1.568571
0.200000,-2.064608,-1.685067,2.340283,-0.657571,1.051853,-3.117635,0.026583,0.365151,0.179477,0.025180,0.022789,-1.568750
0.250000,-2.070645,-1.716777,2.296643,-0.582025,1.045816,-3.117537,0.030084,0.368253,0.201816,0.025176,0.022974,-1.568929
0.300000,-2.076682,-1.748486,2.253004,-0.506478,1.039779,-3.117438,0.032749,0.369748,0.224952,0.025172,0.023162,-1.569106
0.350000,-2.082719,-1.780195,2.209365,-0.430932,1.033743,-3.117339,0.034517,0.369587,0.248744,0.025167,0.023352,-1.569282
0.400000,-2.088756,-1.811905,2.165725,-0.355385,1.027706,-3.117241,0.035325,0.367733,0.273046,0.025163,0.023543,-1.569457
0.450000,-2.094793,-1.843614,2.122086,-0.279839,1.021669,-3.117142,0.035117,0.364159,0.297703,0.025159,0.023737,-1.569630
0.500000,-2.100830,-1.875323,2.078446,-0.204292,1.015632,-3.117043,0.033844,0.358850,0.322562,0.025155,0.023933,-1.569803
0.550000,-2.106867,-1.907032,2.034807,-0.128746,1.009595,-3.116945,0.031460,0.351802,0.347463,0.025151,0.024131,-1.569974
0.600000,-2.112383,-1.937827,1.991527,-0.055762,1.001604,-3.116838,0.027821,0.343423,0.371973,0.027648,0.023644,-1.569059
0.650000,-2.115773,-1.964889,1.949714,0.006762,0.985637,-3.116697,0.022715,0.335102,0.395155,0.040342,0.020248,-1.563782
0.700000,-2.116923,-1.988020,1.909446,0.058270,0.961268,-3.116520,0.016377,0.327194,0.416929,0.063722,0.013446,-1.554148
0.750000,-2.115835,-2.007219,1.870723,0.098761,0.928499,-3.116308,0.009050,0.319914,0.437307,0.097682,0.002672,-1.540584
0.800000,-2.112507,-2.022487,1.833546,0.128236,0.887329,-3.116060,0.000958,0.313426,0.456311,0.142057,-0.012816,-1.523734
0.850000,-2.106939,-2.033823,1.797913,0.146695,0.837757,-3.115777,-0.007698,0.307838,0.473971,0.196628,-0.033894,-1.504498
0.900000,-2.099133,-2.041228,1.763825,0.154138,0.779785,-3.115458,-0.016736,0.303222,0.490299,0.261139,-0.061503,-1.484072
0.950000,-2.089087,-2.044702,1.731282,0.150564,0.713412,-3.115103,-0.025989,0.299612,0.505285,0.335341,-0.096568,-1.463992
1.000000,-2.076802,-2.044244,1.700284,0.135974,0.638638,-3.114712,-0.035299,0.297022,0.518882,0.419081,-0.139890,-1.446171
1.050000,-2.062547,-2.040328,1.670646,0.111694,0.556474,-3.114290,-0.044507,0.295222,0.531127,0.511205,-0.191331,-1.433095
1.100000,-2.048002,-2.035903,1.641207,0.085985,0.473221,-3.113864,-0.053493,0.292777,0.542705,0.604560,-0.246408,-1.427521
1.150000,-2.033457,-2.031477,1.611769,0.060276,0.389968,-3.113437,-0.062163,0.289508,0.553714,0.698576,-0.303490,-1.430212
1.200000,-2.018912,-2.027051,1.582331,0.034566,0.306714,-3.113010,-0.070429,0.285500,0.564137,0.794130,-0.361607,-1.441720
1.250000,-2.004366,-2.022625,1.552893,0.008857,0.223461,-3.112584,-0.078211,0.280845,0.573969,0.892215,-0.419730,-1.462663
1.300000,-1.989821,-2.018199,1.523454,-0.016852,0.140207,-3.112157,-0.085438,0.275639,0.583215,0.993897,-0.476749,-1.493717
1.350000,-1.975276,-2.013773,1.494016,-0.042561,0.056954,-3.111731,-0.092047,0.269979,0.591895,1.100268,-0.531454,-1.535585
1.400000,-1.960731,-2.009347,1.464578,-0.068271,-0.026300,-3.111304,-0.097987,0.263964,0.600041,1.212343,-0.582513,-1.588915
1.450000,-1.946185,-2.004922,1.435140,-0.093980,-0.109553,-3.110877,-0.103217,0.257692,0.607694,1.330918,-0.628475,-1.654163
1.500000,-1.931640,-2.000496,1.405701,-0.119689,-0.192806,-3.110451,-0.107707,0.251257,0.614907,1.456355,-0.667791,-1.731384
1.550000,-1.917095,-1.996070,1.376263,-0.145398,-0.276060,-3.110024,-0.111440,0.244746,0.621740,1.588329,-0.698881,-1.819987
1.600000,-1.902550,-1.991644,1.346825,-0.171107,-0.359313,-3.109598,-0.114407,0.238240,0.628263,1.725597,-0.720258,-1.918503
1.650000,-1.888004,-1.987218,1.317386,-0.196817,-0.442567,-3.109171,-0.116612,0.231812,0.634550,1.865906,-0.730693,-2.024498
1.700000,-1.873459,-1.982792,1.287948,-0.222526,-0.525820,-3.108744,-0.118069,0.225525,0.640682,2.006160,-0.729383,-2.134734
1.750000,-1.858914,-1.978367,1.258510,-0.248235,-0.609073,-3.108318,-0.118801,0.219429,0.646741,2.142857,-0.716083,-2.245616
1.800000,-1.844369,-1.973941,1.229072,-0.273944,-0.692327,-3.107891,-0.118841,0.213563,0.652811,2.272680,-0.691121,-2.353777
1.850000,-1.829823,-1.969515,1.199633,-0.299654,-0.775580,-3.107465,-0.118228,0.207953,0.658976,2.393003,-0.655321,-2.456590
1.900000,-1.815278,-1.965089,1.170195,-0.325363,-0.858834,-3.107038,-0.117009,0.202611,0.665319,2.502142,-0.609835,-2.552419
1.950000,-1.800733,-1.960663,1.140757,-0.351072,-0.942087,-3.106612,-0.115236,0.197536,0.671916,2.599328,-0.555977,-2.640597
2.000000,-1.786178,-1.956234,1.111299,-0.376798,-1.025275,-3.106185,-0.112970,0.192715,0.678850,2.684502,-0.495145,-2.721250
2.050000,-1.770869,-1.951576,1.080316,-0.403857,-1.103328,-3.105736,-0.110773,0.188124,0.686899,2.758076,-0.433830,-2.796839
2.100000,-1.754340,-1.946547,1.046862,-0.433073,-1.173059,-3.105251,-0.109081,0.183617,0.696477,2.821515,-0.376423,-2.870186
2.150000,-1.736589,-1.941145,1.010936,-0.464449,-1.234468,-3.104730,-0.108003,0.178993,0.707510,2.876403,-0.323871,-2.942945
2.200000,-1.717617,-1.935372,0.972538,-0.497983,-1.287557,-3.104174,-0.107614,0.174032,0.719914,2.924189,-0.277008,-3.016434
2.250000,-1.697424,-1.929228,0.931669,-0.533675,-1.332324,-3.103582,-0.107954,0.168502,0.733595,2.966282,-0.236560,-3.091689
2.300000,-1.676010,-1.922712,0.888329,-0.571526,-1.368770,-3.102954,-0.109026,0.162167,0.748448,3.004144,-0.203132,3.113683
2.350000,-1.653374,-1.915824,0.842517,-0.611535,-1.396895,-3.102290,-0.110798,0.154784,0.764359,3.039343,-0.177166,3.032721
2.400000,-1.629518,-1.908565,0.794234,-0.653703,-1.416699,-3.101590,-0.113206,0.146108,0.781204,3.073591,-0.158897,2.948183
2.450000,-1.604440,-1.900934,0.743480,-0.698029,-1.428181,-3.100855,-0.116150,0.135892,0.798849,3.108756,-0.148280,2.859756
2.500000,-1.578142,-1.892932,0.690254,-0.744514,-1.431342,-3.100084,-0.119491,0.123887,0.817143,-3.136348,-0.144920,2.767183
2.550000,-1.550622,-1.884558,0.634556,-0.793157,-1.426182,-3.099277,-0.123058,0.109846,0.835917,-3.093267,-0.148003,2.670209
2.600000,-1.521881,-1.875812,0.576387,-0.843959,-1.412700,-3.098434,-0.126634,0.093522,0.854978,-3.043095,-0.156215,2.568543
2.650000,-1.491919,-1.866695,0.515747,-0.896919,-1.390898,-3.097555,-0.129960,0.074674,0.874099,-2.983847,-0.167690,2.461863
2.700000,-1.461098,-1.857317,0.453370,-0.951395,-1.363250,-3.096652,-0.132537,0.053380,0.892772,-2.916164,-0.178368,2.351368
2.750000,-1.430247,-1.847929,0.390929,-1.005928,-1.335384,-3.095747,-0.133689,0.030302,0.910212,-2.845223,-0.182960,2.240561
2.800000,-1.399395,-1.838541,0.328488,-1.060461,-1.307518,-3.094842,-0.133252,0.005622,0.926209,-2.772244,-0.180822,2.130062
2.850000,-1.368543,-1.829153,0.266046,-1.114994,-1.279652,-3.093938,-0.131097,-0.020478,0.940584,-2.698330,-0.171639,2.020442
2.900000,-1.337691,-1.819765,0.203605,-1.169527,-1.251786,-3.093033,-0.127117,-0.047786,0.953164,-2.624608,-0.155273,1.912284
2.950000,-1.306839,-1.810377,0.141164,-1.224060,-1.223920,-3.092128,-0.121230,-0.076066,0.963786,-2.552169,-0.131761,1.806121
3.000000,-1.275987,-1.800989,0.078723,-1.278592,-1.196054,-3.091224,-0.113380,-0.105060,0.972303,-2.482028,-0.101301,1.702384
3.050000,-1.245135,-1.791601,0.016282,-1.333125,-1.168189,-3.090319,-0.103542,-0.134495,0.978581,-2.415088,-0.064236,1.601356
3.100000,-1.214283,-1.782213,-0.046160,-1.387658,-1.140323,-3.089414,-0.091720,-0.164083,0.982505,-2.352129,-0.021020,1.503145
3.150000,-1.183431,-1.772825,-0.108601,-1.442191,-1.112457,-3.088509,-0.077952,-0.193527,0.983980,-2.293820,0.027803,1.407674
3.200000,-1.152579,-1.763437,-0.171042,-1.496724,-1.084591,-3.087605,-0.062311,-0.222528,0.982931,-2.240737,0.081625,1.314678
3.250000,-1.121727,-1.754049,-0.233483,-1.551257,-1.056725,-3.086700,-0.044901,-0.250785,0.979308,-2.193402,0.139791,1.223715
3.300000,-1.090875,-1.744661,-0.295925,-1.605790,-1.028859,-3.085795,-0.025859,-0.278006,0.973083,-2.152321,0.201610,1.134169
3.350000,-1.060023,-1.735273,-0.358366,-1.660323,-1.000994,-3.084891,-0.005352,-0.303910,0.964255,-2.118036,0.266355,1.045253
3.400000,-1.029171,-1.725885,-0.420807,-1.714856,-0.973128,-3.083986,0.016420,-0.328231,0.952847,-2.091165,0.333260,0.956007
3.450000,-0.998319,-1.716497,-0.483248,-1.769389,-0.945262,-3.083081,0.039235,-0.350725,0.938908,-2.072456,0.401500,0.865286
3.500000,-0.967467,-1.707109,-0.545689,-1.823921,-0.917396,-3.082177,0.062846,-0.371171,0.922514,-2.062828,0.470167,0.771744
3.550000,-0.936616,-1.697721,-0.608131,-1.878454,-0.889530,-3.081272,0.086987,-0.389380,0.903763,-2.063408,0.538234,0.673820
3.600000,-0.905764,-1.688333,-0.670572,-1.932987,-0.861664,-3.080367,0.111377,-0.405193,0.882779,-2.075542,0.604509,0.569743
3.650000,-0.874912,-1.678945,-0.733013,-1.987520,-0.833798,-3.079462,0.135725,-0.418486,0.859709,-2.100756,0.667579,0.457578
3.700000,-0.844060,-1.669557,-0.795454,-2.042053,-0.805933,-3.078558,0.159735,-0.429173,0.834721,-2.140618,0.725760,0.335375
3.750000,-0.813208,-1.660169,-0.857896,-2.096586,-0.778067,-3.077653,0.183111,-0.437206,0.808001,-2.196428,0.777063,0.201475
3.800000,-0.782356,-1.650782,-0.920337,-2.151119,-0.750201,-3.076748,0.205562,-0.442575,0.779754,-2.268682,0.819225,0.055058
3.850000,-0.751504,-1.641394,-0.982778,-2.205652,-0.722335,-3.075844,0.226807,-0.445310,0.750197,-2.356341,0.849855,-0.103134
3.900000,-0.720652,-1.632006,-1.045219,-2.260185,-0.694469,-3.074939,0.246582,-0.445479,0.719561,-2.456166,0.866736,-0.270133
3.950000,-0.689800,-1.622618,-1.107660,-2.314718,-0.666603,-3.074034,0.264642,-0.443183,0.688087,-2.562646,0.868251,-0.440666
4.000000,-0.658948,-1.613230,-1.170102,-2.369250,-0.638738,-3.073130,0.280766,-0.438561,0.656020,-2.668921,0.853768,-0.608090
4.050000,-0.628096,-1.603842,-1.232543,-2.423783,-0.610872,-3.072225,0.294762,-0.431780,0.623608,-2.768454,0.823764,-0.766054
4.100000,-0.597244,-1.594454,-1.294984,-2.478316,-0.583006,-3.071320,0.306472,-0.423036,0.591101,-2.856518,0.779633,-0.910000
4.150000,-0.566392,-1.585066,-1.357425,-2.532849,-0.555140,-3.070416,0.315770,-0.412547,0.558745,-2.930757,0.723277,-1.037714
4.200000,-0.535540,-1.575678,-1.419867,-2.587382,-0.527274,-3.069511,0.322567,-0.400551,0.526779,-2.990837,0.656714,-1.148985
4.250000,-0.505461,-1.567087,-1.481712,-2.640166,-0.500139,-3.068658,0.326944,-0.387754,0.495517,-3.037097,0.582798,-1.243417
4.300000,-0.479190,-1.562424,-1.540618,-2.684335,-0.476603,-3.068058,0.329587,-0.376193,0.465405,-3.069741,0.507741,-1.318362
4.350000,-0.457036,-1.562009,-1.596349,-2.719188,-0.456958,-3.067732,0.330942,-0.366215,0.436429,-3.092160,0.434503,-1.377654
4.400000,-0.438999,-1.565840,-1.648902,-2.744727,-0.441205,-3.067680,0.331346,-0.357919,0.408483,-3.107232,0.364899,-1.424871
4.450000,-0.425078,-1.573917,-1.698280,-2.760951,-0.429343,-3.067902,0.331066,-0.351355,0.381429,-3.117100,0.300194,-1.462761
4.500000,-0.415275,-1.586242,-1.744481,-2.767860,-0.421373,-3.068398,0.330302,-0.346539,0.355107,-3.123327,0.241272,-1.493403
4.550000,-0.409588,-1.602813,-1.787505,-2.765455,-0.417294,-3.069169,0.329189,-0.343467,0.329355,-3.127043,0.188753,-1.518342
4.600000,-0.408018,-1.623631,-1.827353,-2.753735,-0.417106,-3.070213,0.327806,-0.342126,0.304010,-3.129068,0.143071,-1.538707
4.650000,-0.410565,-1.648695,-1.864025,-2.732700,-0.420810,-3.071531,0.326178,-0.342496,0.278921,-3.129996,0.104523,-1.555288
4.700000,-0.417229,-1.678006,-1.897520,-2.702350,-0.428405,-3.073123,0.324288,-0.344558,0.253948,-3.130261,0.073299,-1.568585
4.750000,-0.428010,-1.711564,-1.927839,-2.662686,-0.439891,-3.074989,0.322075,-0.348293,0.228966,-3.130179,0.049498,-1.578856
4.800000,-0.442908,-1.749369,-1.954981,-2.613707,-0.455269,-3.077129,0.319443,-0.353677,0.203872,-3.129980,0.033138,-1.586135
4.850000,-0.461922,-1.791421,-1.978947,-2.555413,-0.474538,-3.079543,0.316255,-0.360686,0.178578,-3.129816,0.024152,-1.590260
4.900000,-0.484916,-1.837577,-1.999842,-2.488117,-0.497568,-3.082222,0.312314,-0.369201,0.153036,-3.129765,0.022146,-1.591010
4.950000,-0.509039,-1.884898,-2.019866,-2.418263,-0.521666,-3.084976,0.306946,-0.377548,0.127598,-3.129747,0.022065,-1.590652
5.000000,-0.533163,-1.932220,-2.039890,-2.348410,-0.545764,-3.087730,0.299995,-0.385000,0.102495,-3.129726,0.021943,-1.590177
