PsorTheDoctor/robwork/src/project/robotics/data/parabolic_from_above2.csv
t,q0,q1,q2,q3,q4,q5,x,y,z,roll,pitch,yaw
0.000000,-1.799310,-1.506530,1.902850,-1.885110,-1.577040,-0.190939,0.001997,0.487497,0.272493,-0.037704,0.009436,3.059891
0.050000,-1.680472,-1.487432,1.790401,-1.891432,-1.479966,-0.167437,-0.060532,0.514088,0.315634,0.059979,0.086587,-3.108932
0.100000,-1.561633,-1.468334,1.677953,-1.897754,-1.382892,-0.143934,-0.129161,0.527940,0.361196,0.176367,0.167589,-2.996591
0.150000,-1.442795,-1.449236,1.565504,-1.904076,-1.285818,-0.120432,-0.201064,0.527730,0.408717,0.312115,0.249259,-2.884153
0.200000,-1.323956,-1.430139,1.453055,-1.910397,-1.188744,-0.096929,-0.273145,0.512782,0.457668,0.467873,0.328353,-2.769386
0.250000,-1.205118,-1.411041,1.340606,-1.916719,-1.091670,-0.073427,-0.342187,0.483132,0.507468,0.644163,0.401516,-2.650268
0.300000,-1.086279,-1.391943,1.228158,-1.923041,-0.994596,-0.049924,-0.405026,0.439542,0.557490,0.841037,0.465288,-2.525439
0.350000,-0.967441,-1.372845,1.115709,-1.929363,-0.897522,-0.026422,-0.458716,0.383484,0.607076,1.057547,0.516236,-2.394779
0.400000,-0.848602,-1.353747,1.003260,-1.935685,-0.800448,-0.002919,-0.500696,0.317075,0.655548,1.291167,0.551244,-2.260006
0.450000,-0.729764,-1.334649,0.890812,-1.942007,-0.703374,0.020583,-0.528933,0.242975,0.702225,1.537521,0.567977,-2.124938
0.500000,-0.610925,-1.315552,0.778363,-1.948329,-0.606300,0.044086,-0.542042,0.164256,0.746435,1.790810,0.565359,-1.995071
0.550000,-0.492087,-1.296454,0.665914,-1.954650,-0.509226,0.067588,-0.539370,0.084232,0.787535,2.044958,0.543836,-1.876405
0.600000,-0.373248,-1.277356,0.553466,-1.960972,-0.412153,0.091090,-0.521028,0.006288,0.824922,2.294973,0.505278,-1.774085
0.650000,-0.254410,-1.258258,0.441017,-1.967294,-0.315079,0.114593,-0.487897,-0.066307,0.858048,2.537799,0.452554,-1.691526
0.700000,-0.135571,-1.239160,0.328568,-1.973616,-0.218005,0.138095,-0.441569,-0.130577,0.886432,2.772380,0.389022,-1.630332
0.750000,-0.016733,-1.220062,0.216119,-1.979938,-0.120931,0.161598,-0.384260,-0.183998,0.909670,2.999176,0.318117,-1.590745
0.800000,0.102106,-1.200965,0.103671,-1.986260,-0.023857,0.185100,-0.318681,-0.224629,0.927448,-3.063646,0.243123,-1.572222
0.850000,0.220944,-1.181867,-0.008778,-1.992582,0.073217,0.208603,-0.247883,-0.251211,0.939543,-2.848008,0.167080,-1.573884
0.900000,0.339783,-1.162769,-0.121227,-1.998903,0.170291,0.232105,-0.175082,-0.263214,0.945826,-2.635405,0.092790,-1.594769
0.950000,0.458621,-1.143671,-0.233675,-2.005225,0.267365,0.255608,-0.103479,-0.260854,0.946271,-2.424426,0.022834,-1.633905
1.000000,0.577460,-1.124573,-0.346124,-2.011547,0.364439,0.279110,-0.036090,-0.245051,0.940942,-2.214117,-0.040421,-1.690260
1.050000,0.696298,-1.105475,-0.458573,-2.017869,0.461513,0.302612,0.024415,-0.217358,0.929999,-2.004134,-0.094853,-1.762631
1.100000,0.815137,-1.086378,-0.571021,-2.024191,0.558587,0.326115,0.075844,-0.179850,0.913685,-1.794846,-0.138672,-1.849517
1.150000,0.933975,-1.067280,-0.683470,-2.030513,0.655661,0.349617,0.116580,-0.134985,0.892317,-1.587376,-0.170540,-1.949048
1.200000,1.052814,-1.048182,-0.795919,-2.036835,0.752735,0.373120,0.145642,-0.085450,0.866281,-1.383523,-0.189706,-2.059013
1.250000,1.171652,-1.029084,-0.908368,-2.043156,0.849809,0.396622,0.162705,-0.034004,0.836014,-1.185562,-0.196127,-2.177024
1.300000,1.290491,-1.009986,-1.020816,-2.049478,0.946883,0.420125,0.168080,0.016679,0.801994,-0.995946,-0.190507,-2.300768
1.350000,1.409329,-0.990888,-1.133265,-2.055800,1.043957,0.443627,0.162660,0.064155,0.764725,-0.816983,-0.174264,-2.428279
1.400000,1.525731,-0.972313,-1.243672,-2.061589,1.139016,0.465769,0.148228,0.105694,0.725509,-0.653134,-0.150500,-2.555536
1.450000,1.624352,-0.957553,-1.339181,-2.063492,1.219370,0.477983,0.130085,0.136920,0.690063,-0.518856,-0.128589,-2.665078
1.500000,1.702510,-0.947184,-1.417546,-2.060922,1.282802,0.478771,0.112351,0.159234,0.660205,-0.410926,-0.111739,-2.752991
1.550000,1.760205,-0.941204,-1.478765,-2.053879,1.329312,0.468134,0.097401,0.175012,0.636563,-0.324256,-0.100926,-2.818680
1.600000,1.797437,-0.939615,-1.522840,-2.042363,1.358900,0.446071,0.086595,0.186311,0.619530,-0.255232,-0.096904,-2.861963
1.650000,1.814207,-0.942417,-1.549770,-2.026374,1.371565,0.412583,0.080696,0.194645,0.609365,-0.201724,-0.100849,-2.883097
1.700000,1.810513,-0.949608,-1.559554,-2.005913,1.367309,0.367670,0.080165,0.200897,0.606254,-0.163101,-0.114709,-2.882872
1.750000,1.786357,-0.961190,-1.552194,-1.980979,1.346130,0.311331,0.085337,0.205270,0.610345,-0.140320,-0.141261,-2.862718
1.800000,1.741738,-0.977163,-1.527690,-1.951572,1.308028,0.243566,0.096452,0.207240,0.621759,-0.136084,-0.183850,-2.824758
1.850000,1.676656,-0.997525,-1.486040,-1.917692,1.253005,0.164376,0.113544,0.205507,0.640566,-0.154991,-0.245830,-2.771656
1.900000,1.591111,-1.022278,-1.427246,-1.879339,1.181059,0.073760,0.136162,0.197971,0.666733,-0.203644,-0.329752,-2.706086
1.950000,1.488383,-1.050718,-1.354054,-1.837230,1.094904,-0.026449,0.162152,0.182641,0.698873,-0.286593,-0.433687,-2.632490
2.000000,1.383730,-1.079571,-1.279249,-1.794701,1.007156,-0.127734,0.186102,0.161554,0.731248,-0.390514,-0.543150,-2.562921
2.050000,1.279076,-1.108424,-1.204445,-1.752171,0.919408,-0.229019,0.206407,0.135503,0.762891,-0.513946,-0.653430,-2.496310
2.100000,1.174423,-1.137276,-1.129640,-1.709642,0.831660,-0.330304,0.222053,0.105154,0.793509,-0.658138,-0.761568,-2.429412
2.150000,1.069769,-1.166129,-1.054835,-1.667112,0.743911,-0.431589,0.232165,0.071393,0.822804,-0.825026,-0.864744,-2.358476
2.200000,0.965116,-1.194982,-0.980030,-1.624583,0.656163,-0.532874,0.236059,0.035299,0.850478,-1.017162,-0.960205,-2.279319
2.250000,0.860463,-1.223835,-0.905225,-1.582053,0.568415,-0.634159,0.233286,-0.001904,0.876243,-1.237192,-1.045272,-2.187810
2.300000,0.755809,-1.252688,-0.830421,-1.539524,0.480667,-0.735444,0.223659,-0.038897,0.899827,-1.486458,-1.117495,-2.081186
2.350000,0.651156,-1.281541,-0.755616,-1.496994,0.392919,-0.836729,0.207274,-0.074330,0.920982,-1.762396,-1.175081,-1.960583
2.400000,0.546502,-1.310393,-0.680811,-1.454464,0.305171,-0.938014,0.184516,-0.106886,0.939487,-2.055567,-1.217621,-1.833914
2.450000,0.441849,-1.339246,-0.606006,-1.411935,0.217423,-1.039299,0.156040,-0.135343,0.955158,-2.349216,-1.246777,-1.716254
2.500000,0.337195,-1.368099,-0.531201,-1.369405,0.129675,-1.140583,0.122754,-0.158633,0.967850,-2.623580,-1.266213,-1.625486
2.550000,0.232542,-1.396952,-0.456397,-1.326876,0.041927,-1.241868,0.085771,-0.175896,0.977461,-2.861737,-1.280462,-1.576451
2.600000,0.127888,-1.425805,-0.381592,-1.284346,-0.045821,-1.343153,0.046362,-0.186524,0.983935,-3.051454,-1.293347,-1.579129
2.650000,0.023235,-1.454658,-0.306787,-1.241817,-0.133569,-1.444438,0.005896,-0.190184,0.987263,3.100491,-1.306699,-1.641201
2.700000,-0.081418,-1.483511,-0.231982,-1.199287,-0.221317,-1.545723,-0.034225,-0.186835,0.987481,3.038044,-1.319463,-1.770611
2.750000,-0.186072,-1.512363,-0.157177,-1.156758,-0.309065,-1.647008,-0.072632,-0.176728,0.984674,3.051622,-1.327035,-1.972297
2.800000,-0.290725,-1.541216,-0.082373,-1.114228,-0.396813,-1.748293,-0.108052,-0.160386,0.978967,3.131249,-1.321627,-2.234147
2.850000,-0.395379,-1.570069,-0.007568,-1.071699,-0.484562,-1.849578,-0.139365,-0.138574,0.970526,-3.046021,-1.295440,-2.514467
2.900000,-0.500032,-1.598922,0.067237,-1.029169,-0.572310,-1.950863,-0.165648,-0.112257,0.959550,-2.962211,-1.245324,-2.763149
2.950000,-0.604686,-1.627775,0.142042,-0.986640,-0.660058,-2.052148,-0.186217,-0.082549,0.946270,-2.922785,-1.173411,-2.956388
3.000000,-0.709339,-1.656628,0.216847,-0.944110,-0.747806,-2.153433,-0.200644,-0.050653,0.930936,-2.923959,-1.083964,-3.096572
3.050000,-0.813993,-1.685480,0.291651,-0.901580,-0.835554,-2.254718,-0.208767,-0.017801,0.913817,-2.953382,-0.981095,3.088479
3.100000,-0.918646,-1.714333,0.366456,-0.859051,-0.923302,-2.356003,-0.210682,0.014804,0.895189,-2.999650,-0.868237,3.022387
3.150000,-1.023300,-1.743186,0.441261,-0.816521,-1.011050,-2.457288,-0.206723,0.046042,0.875331,-3.054275,-0.748306,2.981395
3.200000,-1.127902,-1.772022,0.516013,-0.774023,-1.098732,-2.558524,-0.197439,0.074907,0.854530,-3.111120,-0.624043,2.961200
3.250000,-1.223760,-1.797958,0.581625,-0.736984,-1.174956,-2.651458,-0.184956,0.097944,0.835838,3.125046,-0.513596,2.955765
3.300000,-1.304502,-1.818880,0.631438,-0.709381,-1.231375,-2.730038,-0.172363,0.113948,0.821672,3.093276,-0.430352,2.956378
3.350000,-1.370128,-1.834789,0.665453,-0.691213,-1.267988,-2.794266,-0.161458,0.124245,0.812270,3.074652,-0.374664,2.956378
3.400000,-1.420638,-1.845685,0.683669,-0.682482,-1.284796,-2.844140,-0.153299,0.129957,0.807737,3.067441,-0.345756,2.950360
3.450000,-1.456032,-1.851568,0.686087,-0.683186,-1.281799,-2.879661,-0.148442,0.131834,0.808119,3.071103,-0.342394,2.934169
3.500000,-1.476310,-1.852437,0.672705,-0.693325,-1.258997,-2.900830,-0.147094,0.130182,0.813434,3.086873,-0.363339,2.904811
3.550000,-1.481471,-1.848293,0.643525,-0.712901,-1.216389,-2.907645,-0.149186,0.124821,0.823668,3.118223,-0.407466,2.860109
3.600000,-1.471517,-1.839135,0.598547,-0.741912,-1.153976,-2.900107,-0.154363,0.115061,0.838721,-3.111865,-0.473449,2.797982
3.650000,-1.446447,-1.824964,0.537769,-0.780360,-1.071758,-2.878217,-0.161861,0.099713,0.858325,-3.027456,-0.558956,2.715247
3.700000,-1.406261,-1.805780,0.461194,-0.828242,-0.969734,-2.841973,-0.170311,0.077159,0.881882,-2.897615,-0.659195,2.605862
3.750000,-1.351152,-1.781647,0.369021,-0.885440,-0.848159,-2.791560,-0.177443,0.045659,0.908204,-2.702878,-0.764349,2.459424
3.800000,-1.290710,-1.755745,0.271275,-0.945967,-0.719597,-2.736084,-0.179866,0.007912,0.933103,-2.447546,-0.847972,2.278800
3.850000,-1.230269,-1.729843,0.173530,-1.006494,-0.591035,-2.680607,-0.176104,-0.033230,0.954084,-2.151253,-0.893360,2.078632
3.900000,-1.169827,-1.703942,0.075784,-1.067021,-0.462472,-2.625131,-0.165669,-0.076496,0.970314,-1.840760,-0.896906,1.884597
3.950000,-1.109386,-1.678040,-0.021962,-1.127548,-0.333910,-2.569654,-0.148376,-0.120417,0.981067,-1.547426,-0.863605,1.727261
4.000000,-1.048944,-1.652138,-0.119708,-1.188074,-0.205348,-2.514178,-0.124379,-0.163402,0.985769,-1.289327,-0.804645,1.623955
4.050000,-0.988503,-1.626236,-0.217454,-1.248601,-0.076786,-2.458702,-0.094181,-0.203837,0.984032,-1.068592,-0.732041,1.575879
4.100000,-0.928061,-1.600334,-0.315200,-1.309128,0.051777,-2.403225,-0.058625,-0.240184,0.975683,-0.879764,-0.655402,1.576213
4.150000,-0.867620,-1.574432,-0.412946,-1.369655,0.180339,-2.347749,-0.018851,-0.271078,0.960771,-0.716578,-0.581310,1.616692
4.200000,-0.807178,-1.548530,-0.510691,-1.430181,0.308901,-2.292272,0.023763,-0.295404,0.939573,-0.574530,-0.513703,1.690054
4.250000,-0.746737,-1.522629,-0.608437,-1.490708,0.437463,-2.236796,0.067683,-0.312370,0.912575,-0.451157,-0.454316,1.790346
4.300000,-0.686295,-1.496727,-0.706183,-1.551235,0.566026,-2.181319,0.111313,-0.321546,0.880447,-0.345517,-0.402983,1.912603
4.350000,-0.625854,-1.470825,-0.803929,-1.611762,0.694588,-2.125843,0.153088,-0.322876,0.844009,-0.257454,-0.357888,2.052473
4.400000,-0.565412,-1.444923,-0.901675,-1.672288,0.823150,-2.070366,0.191567,-0.316672,0.804186,-0.186871,-0.315863,2.205897
4.450000,-0.504971,-1.419021,-0.999421,-1.732815,0.951712,-2.014890,0.225517,-0.303574,0.761954,-0.133119,-0.272815,2.368857
4.500000,-0.446064,-1.394195,-1.096598,-1.791350,1.078925,-1.960903,0.254026,-0.285227,0.718431,-0.095077,-0.224404,2.535220
4.550000,-0.403513,-1.380823,-1.187720,-1.828666,1.191756,-1.922779,0.277772,-0.270103,0.675730,-0.072499,-0.170521,2.682052
4.600000,-0.381039,-1.381514,-1.271409,-1.839933,1.286935,-1.904128,0.298513,-0.261751,0.634260,-0.059268,-0.116616,2.803377
4.650000,-0.378642,-1.396267,-1.347664,-1.825152,1.364461,-1.904950,0.317283,-0.261617,0.593561,-0.051047,-0.068466,2.900301
4.700000,-0.396322,-1.425082,-1.416486,-1.784323,1.424334,-1.925245,0.334153,-0.270962,0.552892,-0.045662,-0.030562,2.974397
4.750000,-0.434079,-1.467959,-1.477874,-1.717446,1.466553,-1.965014,0.348127,-0.290927,0.511396,-0.042113,-0.005407,3.026525
4.800000,-0.491913,-1.524899,-1.531829,-1.624521,1.491120,-2.024256,0.357079,-0.322407,0.468211,-0.039988,0.006862,3.056334
4.850000,-0.569191,-1.595457,-1.578585,-1.506368,1.498590,-2.102356,0.357778,-0.365341,0.422568,-0.039139,0.008988,3.063145
4.900000,-0.652099,-1.669958,-1.623257,-1.380912,1.501110,-2.185918,0.348509,-0.410417,0.374655,-0.038663,0.008910,3.062608
4.950000,-0.735006,-1.744459,-1.667928,-1.255456,1.503630,-2.269479,0.329822,-0.452504,0.325241,-0.038182,0.009030,3.061522
5.000000,-0.817914,-1.818960,-1.712600,-1.130000,1.506150,-2.353040,0.302497,-0.490001,0.274997,-0.037700,0.009438,3.059921
