PsorTheDoctor/robwork/src/project/robotics/data/parabolic_from_above.csv
t,q0,q1,q2,q3,q4,q5,x,y,z,roll,pitch,yaw
0.000000,-1.799310,-1.506530,1.902850,-1.885110,-1.577040,-0.190939,0.001997,0.487497,0.272493,-0.037704,0.009436,3.059891
0.050000,-1.810157,-1.564572,1.901693,-1.826009,-1.577927,-0.201749,0.003488,0.471583,0.295055,-0.037705,0.009432,3.059917
0.100000,-1.821004,-1.622614,1.900536,-1.766908,-1.578814,-0.212559,0.004311,0.454430,0.316640,-0.037706,0.009429,3.059933
0.150000,-1.831455,-1.679222,1.898737,-1.708642,-1.579670,-0.225049,0.004405,0.436637,0.336940,-0.035638,0.009584,3.060003
0.200000,-1.839506,-1.727152,1.893054,-1.655422,-1.580341,-0.247704,0.003692,0.421026,0.354933,-0.021051,0.010683,3.060458
0.250000,-1.844881,-1.765402,1.883037,-1.607832,-1.580806,-0.281700,0.002400,0.408216,0.370903,0.007506,0.012799,3.061387
0.300000,-1.847579,-1.793970,1.868687,-1.565873,-1.581063,-0.327038,0.000742,0.398415,0.385231,0.050039,0.015866,3.062874
0.350000,-1.847600,-1.812856,1.850003,-1.529544,-1.581114,-0.383716,-0.001125,0.391800,0.398208,0.106559,0.019783,3.065029
0.400000,-1.844944,-1.822062,1.826985,-1.498846,-1.580959,-0.451736,-0.003096,0.388533,0.410027,0.177080,0.024411,3.067987
0.450000,-1.840596,-1.825144,1.801226,-1.471708,-1.580672,-0.526928,-0.005135,0.387342,0.421163,0.256476,0.029258,3.071641
0.500000,-1.836220,-1.828128,1.775423,-1.444628,-1.580384,-0.602235,-0.007248,0.385867,0.432278,0.336051,0.033706,3.075607
0.550000,-1.831844,-1.831112,1.749620,-1.417548,-1.580095,-0.677542,-0.009432,0.384067,0.443373,0.415663,0.037727,3.079837
0.600000,-1.827468,-1.834097,1.723818,-1.390468,-1.579806,-0.752850,-0.011683,0.381943,0.454437,0.495309,0.041308,3.084291
0.650000,-1.823093,-1.837081,1.698015,-1.363387,-1.579518,-0.828157,-0.013995,0.379494,0.465463,0.574988,0.044439,3.088926
0.700000,-1.818717,-1.840065,1.672212,-1.336307,-1.579229,-0.903464,-0.016366,0.376721,0.476439,0.654696,0.047112,3.093702
0.750000,-1.814341,-1.843049,1.646409,-1.309227,-1.578941,-0.978772,-0.018789,0.373625,0.487359,0.734430,0.049326,3.098575
0.800000,-1.809966,-1.846033,1.620607,-1.282147,-1.578652,-1.054079,-0.021261,0.370205,0.498211,0.814185,0.051081,3.103504
0.850000,-1.805590,-1.849017,1.594804,-1.255067,-1.578364,-1.129386,-0.023777,0.366463,0.508987,0.893957,0.052382,3.108448
0.900000,-1.801214,-1.852002,1.569001,-1.227986,-1.578075,-1.204694,-0.026332,0.362401,0.519678,0.973742,0.053237,3.113367
0.950000,-1.796838,-1.854986,1.543198,-1.200906,-1.577787,-1.280001,-0.028923,0.358020,0.530275,1.053535,0.053657,3.118222
1.000000,-1.792463,-1.857970,1.517395,-1.173826,-1.577498,-1.355308,-0.031543,0.353322,0.540769,1.133331,0.053657,3.122976
1.050000,-1.788087,-1.860954,1.491593,-1.146746,-1.577209,-1.430616,-0.034188,0.348309,0.551150,1.213128,0.053256,3.127594
1.100000,-1.783711,-1.863938,1.465790,-1.119666,-1.576921,-1.505923,-0.036854,0.342985,0.561411,1.292920,0.052474,3.132043
1.150000,-1.779335,-1.866922,1.439987,-1.092585,-1.576632,-1.581230,-0.039536,0.337352,0.571543,1.372705,0.051334,3.136292
1.200000,-1.774960,-1.869906,1.414184,-1.065505,-1.576344,-1.656538,-0.042229,0.331413,0.581536,1.452480,0.049862,3.140314
1.250000,-1.770584,-1.872891,1.388382,-1.038425,-1.576055,-1.731845,-0.044929,0.325172,0.591383,1.532243,0.048086,-3.139103
1.300000,-1.766208,-1.875875,1.362579,-1.011345,-1.575767,-1.807152,-0.047630,0.318632,0.601076,1.611993,0.046035,-3.135609
1.350000,-1.761832,-1.878859,1.336776,-0.984265,-1.575478,-1.882459,-0.050329,0.311797,0.610605,1.691728,0.043742,-3.132410
1.400000,-1.757457,-1.881843,1.310973,-0.957184,-1.575190,-1.957767,-0.053020,0.304672,0.619963,1.771449,0.041238,-3.129522
1.450000,-1.753081,-1.884827,1.285171,-0.930104,-1.574901,-2.033074,-0.055700,0.297262,0.629142,1.851156,0.038557,-3.126956
1.500000,-1.748705,-1.887811,1.259368,-0.903024,-1.574613,-2.108381,-0.058362,0.289571,0.638134,1.930849,0.035733,-3.124723
1.550000,-1.744329,-1.890796,1.233565,-0.875944,-1.574324,-2.183689,-0.061004,0.281604,0.646932,2.010530,0.032801,-3.122829
1.600000,-1.739954,-1.893780,1.207762,-0.848864,-1.574035,-2.258996,-0.063621,0.273367,0.655527,2.090200,0.029795,-3.121276
1.650000,-1.735578,-1.896764,1.181959,-0.821783,-1.573747,-2.334303,-0.066207,0.264865,0.663914,2.169860,0.026750,-3.120064
1.700000,-1.731202,-1.899748,1.156157,-0.794703,-1.573458,-2.409611,-0.068760,0.256104,0.672083,2.249514,0.023700,-3.119190
1.750000,-1.726826,-1.902732,1.130354,-0.767623,-1.573170,-2.484918,-0.071274,0.247091,0.680030,2.329162,0.020677,-3.118647
1.800000,-1.722451,-1.905716,1.104551,-0.740543,-1.572881,-2.560225,-0.073745,0.237832,0.687746,2.408807,0.017715,-3.118425
1.850000,-1.718075,-1.908701,1.078748,-0.713463,-1.572593,-2.635533,-0.076170,0.228333,0.695225,2.488450,0.014842,-3.118512
1.900000,-1.713699,-1.911685,1.052946,-0.686382,-1.572304,-2.710840,-0.078544,0.218601,0.702461,2.568094,0.012089,-3.118891
1.950000,-1.709323,-1.914669,1.027143,-0.659302,-1.572016,-2.786147,-0.080864,0.208644,0.709448,2.647739,0.009483,-3.119546
2.000000,-1.704501,-1.917357,1.000599,-0.633495,-1.569994,-2.858735,-0.083338,0.198573,0.716485,2.725071,0.004964,-3.121641
2.050000,-1.697828,-1.918818,0.970987,-0.612961,-1.560794,-2.920051,-0.086613,0.188689,0.724512,2.792924,-0.007559,-3.129635
2.100000,-1.689201,-1.918985,0.938136,-0.597993,-1.544018,-2.969472,-0.090694,0.178930,0.733575,2.851221,-0.027760,3.138250
2.150000,-1.678622,-1.917857,0.902046,-0.588591,-1.519665,-3.007000,-0.095538,0.169189,0.743668,2.900764,-0.055155,3.115108
2.200000,-1.666089,-1.915435,0.862718,-0.584755,-1.487737,-3.032632,-0.101102,0.159328,0.754802,2.942691,-0.089654,3.084101
2.250000,-1.651603,-1.911718,0.820151,-0.586484,-1.448232,-3.046371,-0.107334,0.149175,0.767001,2.978479,-0.131562,3.045610
2.300000,-1.635164,-1.906706,0.774345,-0.593779,-1.401151,-3.048215,-0.114171,0.138519,0.780299,3.009959,-0.181494,3.000318
2.350000,-1.616772,-1.900400,0.725301,-0.606639,-1.346494,-3.038164,-0.121526,0.127101,0.794727,3.039339,-0.240256,2.949105
2.400000,-1.597214,-1.893322,0.674325,-0.622819,-1.287318,-3.021020,-0.128952,0.114645,0.809725,3.071603,-0.304411,2.894484
2.450000,-1.577647,-1.886237,0.623333,-0.639027,-1.228103,-3.003814,-0.135865,0.101066,0.824406,3.111518,-0.367637,2.838654
2.500000,-1.558080,-1.879152,0.572340,-0.655236,-1.168889,-2.986608,-0.142186,0.086362,0.838692,-3.123724,-0.429203,2.780850
2.550000,-1.538512,-1.872067,0.521347,-0.671444,-1.109674,-2.969402,-0.147840,0.070540,0.852508,-3.067357,-0.488395,2.720284
2.600000,-1.518945,-1.864982,0.470355,-0.687653,-1.050459,-2.952197,-0.152753,0.053621,0.865776,-3.002153,-0.544444,2.656202
2.650000,-1.499378,-1.857897,0.419362,-0.703861,-0.991245,-2.934991,-0.156850,0.035635,0.878414,-2.927737,-0.596525,2.587938
2.700000,-1.479811,-1.850812,0.368370,-0.720070,-0.932030,-2.917785,-0.160061,0.016624,0.890338,-2.843866,-0.643765,2.515004
2.750000,-1.460243,-1.843727,0.317377,-0.736278,-0.872815,-2.900579,-0.162320,-0.003358,0.901461,-2.750550,-0.685259,2.437206
2.800000,-1.440676,-1.836643,0.266385,-0.752486,-0.813601,-2.883374,-0.163562,-0.024244,0.911699,-2.648186,-0.720111,2.354774
2.850000,-1.421109,-1.829558,0.215392,-0.768695,-0.754386,-2.866168,-0.163730,-0.045957,0.920967,-2.537690,-0.747499,2.268496
2.900000,-1.401541,-1.822473,0.164399,-0.784903,-0.695171,-2.848962,-0.162774,-0.068408,0.929180,-2.420564,-0.766760,2.179774
2.950000,-1.381974,-1.815388,0.113407,-0.801112,-0.635957,-2.831756,-0.160651,-0.091496,0.936260,-2.298853,-0.777473,2.090581
3.000000,-1.362407,-1.808303,0.062414,-0.817320,-0.576742,-2.814550,-0.157325,-0.115111,0.942128,-2.174960,-0.779533,2.003275
3.050000,-1.342840,-1.801218,0.011422,-0.833529,-0.517527,-2.797345,-0.152771,-0.139135,0.946715,-2.051356,-0.773181,1.920305
3.100000,-1.323272,-1.794133,-0.039571,-0.849737,-0.458313,-2.780139,-0.146974,-0.163439,0.949953,-1.930265,-0.758980,1.843889
3.150000,-1.303705,-1.787048,-0.090563,-0.865946,-0.399098,-2.762933,-0.139929,-0.187888,0.951784,-1.813420,-0.737747,1.775773
3.200000,-1.284138,-1.779963,-0.141556,-0.882154,-0.339883,-2.745727,-0.131641,-0.212342,0.952155,-1.701955,-0.710465,1.717115
3.250000,-1.264570,-1.772878,-0.192549,-0.898363,-0.280669,-2.728522,-0.122130,-0.236657,0.951024,-1.596423,-0.678188,1.668504
3.300000,-1.245003,-1.765793,-0.243541,-0.914571,-0.221454,-2.711316,-0.111424,-0.260685,0.948356,-1.496906,-0.641966,1.630060
3.350000,-1.225436,-1.758708,-0.294534,-0.930780,-0.162239,-2.694110,-0.099564,-0.284277,0.944127,-1.403151,-0.602797,1.601571
3.400000,-1.205869,-1.751623,-0.345526,-0.946988,-0.103025,-2.676904,-0.086604,-0.307284,0.938321,-1.314704,-0.561598,1.582619
3.450000,-1.186301,-1.744539,-0.396519,-0.963196,-0.043810,-2.659698,-0.072608,-0.329559,0.930935,-1.231015,-0.519196,1.572679
3.500000,-1.166734,-1.737454,-0.447511,-0.979405,0.015405,-2.642493,-0.057650,-0.350960,0.921973,-1.151514,-0.476325,1.571191
3.550000,-1.147167,-1.730369,-0.498504,-0.995613,0.074619,-2.625287,-0.041818,-0.371348,0.911454,-1.075661,-0.433633,1.577599
3.600000,-1.127599,-1.723284,-0.549497,-1.011822,0.133834,-2.608081,-0.025205,-0.390592,0.899404,-1.002972,-0.391689,1.591374
3.650000,-1.108032,-1.716199,-0.600489,-1.028030,0.193049,-2.590875,-0.007915,-0.408567,0.885863,-0.933039,-0.350990,1.612023
3.700000,-1.088465,-1.709114,-0.651482,-1.044239,0.252263,-2.573670,0.009939,-0.425162,0.870877,-0.865537,-0.311968,1.639091
3.750000,-1.068898,-1.702029,-0.702474,-1.060447,0.311478,-2.556464,0.028239,-0.440272,0.854507,-0.800220,-0.274990,1.672152
3.800000,-1.049330,-1.694944,-0.753467,-1.076656,0.370693,-2.539258,0.046862,-0.453805,0.836818,-0.736929,-0.240366,1.710803
3.850000,-1.029763,-1.687859,-0.804459,-1.092864,0.429907,-2.522052,0.065680,-0.465684,0.817889,-0.675579,-0.208343,1.754663
3.900000,-1.010196,-1.680774,-0.855452,-1.109073,0.489122,-2.504846,0.084562,-0.475844,0.797803,-0.616160,-0.179109,1.803359
3.950000,-0.990628,-1.673689,-0.906445,-1.125281,0.548337,-2.487641,0.103376,-0.484233,0.776652,-0.558725,-0.152787,1.856529
4.000000,-0.971061,-1.666604,-0.957437,-1.141490,0.607551,-2.470435,0.121991,-0.490815,0.754536,-0.503386,-0.129436,1.913813
4.050000,-0.951494,-1.659519,-1.008430,-1.157698,0.666766,-2.453229,0.140276,-0.495570,0.731557,-0.450300,-0.109050,1.974860
4.100000,-0.931926,-1.652434,-1.059422,-1.173907,0.725981,-2.436023,0.158103,-0.498490,0.707825,-0.399656,-0.091554,2.039322
4.150000,-0.912359,-1.645350,-1.110415,-1.190115,0.785195,-2.418818,0.175349,-0.499584,0.683450,-0.351669,-0.076807,2.106862
4.200000,-0.892792,-1.638265,-1.161408,-1.206323,0.844410,-2.401612,0.191895,-0.498876,0.658547,-0.306558,-0.064601,2.177154
4.250000,-0.873225,-1.631180,-1.212400,-1.222532,0.903625,-2.384406,0.207631,-0.496402,0.633231,-0.264542,-0.054668,2.249889
4.300000,-0.853657,-1.624095,-1.263393,-1.238740,0.962839,-2.367200,0.222452,-0.492212,0.607618,-0.225818,-0.046682,2.324774
4.350000,-0.834090,-1.617010,-1.314385,-1.254949,1.022054,-2.349994,0.236263,-0.486370,0.581823,-0.190558,-0.040269,2.401535
4.400000,-0.814523,-1.609925,-1.365378,-1.271157,1.081269,-2.332789,0.248978,-0.478951,0.555957,-0.158894,-0.035012,2.479915
4.450000,-0.794955,-1.602840,-1.416370,-1.287366,1.140483,-2.315583,0.260523,-0.470039,0.530130,-0.130910,-0.030460,2.559673
4.500000,-0.775388,-1.595755,-1.467363,-1.303574,1.199698,-2.298377,0.270830,-0.459730,0.504448,-0.106638,-0.026143,2.640579
4.550000,-0.755821,-1.588670,-1.518356,-1.319783,1.258913,-2.281171,0.279847,-0.448126,0.479011,-0.086055,-0.021575,2.722410
4.600000,-0.738360,-1.584186,-1.567007,-1.333023,1.315601,-2.265971,0.287399,-0.436929,0.454143,-0.069800,-0.016210,2.801305
4.650000,-0.727009,-1.587243,-1.608870,-1.337654,1.364962,-2.256585,0.293449,-0.429352,0.430289,-0.058333,-0.010131,2.870077
4.700000,-0.721863,-1.597962,-1.643837,-1.333540,1.406879,-2.253106,0.298313,-0.425675,0.407348,-0.050390,-0.004097,2.928364
4.750000,-0.722923,-1.616341,-1.671909,-1.320681,1.441353,-2.255533,0.302172,-0.426065,0.385138,-0.044998,0.001210,2.976070
4.800000,-0.730189,-1.642381,-1.693084,-1.299078,1.468384,-2.263868,0.305060,-0.430658,0.363415,-0.041450,0.005294,3.013144
4.850000,-0.743661,-1.676083,-1.707364,-1.268729,1.487972,-2.278109,0.306852,-0.439566,0.341884,-0.039248,0.007918,3.039540
4.900000,-0.763338,-1.717445,-1.714747,-1.229636,1.500117,-2.298256,0.307263,-0.452870,0.320206,-0.038061,0.009155,3.055198
4.950000,-0.789214,-1.766460,-1.715242,-1.181807,1.504827,-2.324304,0.305840,-0.470598,0.298000,-0.037703,0.009417,3.060050
5.000000,-0.817914,-1.818960,-1.712600,-1.130000,1.506150,-2.353040,0.302497,-0.490001,0.274997,-0.037700,0.009438,3.059921
